swiss/communes/5711.svg

<svg xmlns="http://www.w3.org/2000/svg" xmlns:xlink="http://www.w3.org/1999/xlink" height="763" width="603" version="1.0"><defs><radialGradient xlink:href="#a" id="b" gradientUnits="userSpaceOnUse" gradientTransform="matrix(1.21503 0 0 1.26667 -839.192 -490.49)" cx="858.042" cy="579.933" fx="858.042" fy="579.933" r="300"/><linearGradient id="a"><stop style="stop-color:#fff;stop-opacity:.3137255" offset="0"/><stop offset=".19" style="stop-color:#fff;stop-opacity:.25098041"/><stop style="stop-color:#6b6b6b;stop-opacity:.1254902" offset=".6"/><stop style="stop-color:#000;stop-opacity:.1254902" offset="1"/></linearGradient></defs><g style="opacity:1"><path d="M1.5 1.5v458.868c0 166.31 134.315 301.132 300 301.132s300-134.822 300-301.132V1.5H1.5z" style="fill:#e20909;fill-opacity:1"/></g><g style="opacity:1;display:inline"><path d="M238 754.718a300.053 300.053 0 0 0 63.5 6.781c21.79 0 43.029-2.354 63.5-6.781V1.5H238v753.218z" style="fill:#fff"/><path d="M364.999 754.718V1.5M238 1.5v753.218" style="fill:none;stroke:#000;stroke-width:3"/><path d="M272.846 106.954c-12.531 0-20.999 9.344-20.999 24.296 0 14.951 2.709 28.78 7.112 42.236 4.403 13.456-3.896 9.906-7.452 20.184-3.557 10.28-.169 27.474 6.097 34.389l16.257-10.466s8.129-7.85 8.129-31.023c0-23.175-8.467-24.296-8.467-44.106 0-19.81 16.935-6.354 16.935-19.81 0-13.457-12.193-15.7-17.612-15.7zM330.152 106.954c12.531 0 20.999 9.344 20.999 24.296 0 14.951-2.709 28.78-7.112 42.236-4.403 13.456 3.894 9.906 7.451 20.184 3.556 10.28.168 27.474-6.097 34.389l-16.259-10.466s-8.128-7.85-8.128-31.023c0-23.175 8.468-24.296 8.468-44.106 0-19.81-16.935-6.354-16.935-19.81.001-13.457 12.194-15.7 17.613-15.7z" style="fill:#fcef3c;stroke:#000;stroke-width:3;stroke-linecap:round;stroke-linejoin:round"/><path d="M316.266 181.165c-3.557-3.996-3.726-10.275-3.726-26.64 0-16.366 2.37-23.596 2.37-33.491s-5.757-14.081-13.411-14.081-13.412 4.187-13.412 14.081c0 9.896 2.371 17.125 2.371 33.491 0 16.365-.169 22.644-3.726 26.64-3.556 3.997-10.094 30.446 14.767 30.446 24.86.001 18.322-26.449 14.767-30.446z" style="fill:#fcef3c;stroke:#000;stroke-width:3;stroke-linecap:round;stroke-linejoin:round"/><ellipse ry="28.253" rx="183.232" cy="547.666" cx="301.537" style="fill:#fcef3c;stroke:#000;stroke-width:3;stroke-linecap:round;stroke-linejoin:round" transform="translate(-.038 -.045)"/><path d="M315.995 513.087h-28.993c0 11.51-11.816 34.743-11.816 62.368 0 27.626 6.75 47.509 26.313 47.509s26.313-19.883 26.313-47.509c0-27.625-11.817-50.858-11.817-62.368z" style="fill:#fcef3c;stroke:#000;stroke-width:3;stroke-linecap:round;stroke-linejoin:round"/><path d="M301.499 519.366c101.196 0 183.232 12.649 183.232 28.255 0-17.79-4.186-35.059-43.95-86.857-39.767-51.8-36.104-126.621-42.383-187.838-6.278-61.218-58.076-68.02-96.899-68.02-38.824 0-90.622 6.802-96.9 68.02-6.278 61.217-2.617 136.038-42.383 187.838-39.764 51.799-43.95 69.067-43.95 86.857.001-15.606 82.036-28.255 183.233-28.255z" style="fill:#fcef3c;stroke:#000;stroke-width:3;stroke-linecap:round;stroke-linejoin:round"/><path d="M449.915 472.9c-8.463-8.462-82.387-17.892-148.416-17.892s-139.953 9.43-148.416 17.892M399.19 281.274c-7.584-14.673-51.543-19.336-97.69-19.336s-90.107 4.664-97.689 19.336M396.257 260.139c-10.604-10.604-48.086-17.037-94.758-17.037s-84.154 6.433-94.758 17.037" style="fill:none;stroke:#000;stroke-width:3;stroke-linejoin:round"/></g><g style="display:inline"><path style="fill:url(#b);fill-opacity:1" d="M1.5 1.5v458.868c0 166.31 134.315 301.132 300 301.132s300-134.821 300-301.132V1.5H1.5z"/></g><g style="display:inline"><path style="fill:none;fill-opacity:1;stroke:#000;stroke-width:3;stroke-miterlimit:4;stroke-dasharray:none;stroke-opacity:1" d="M1.5 1.5v458.868c0 166.31 134.315 301.132 300 301.132s300-134.821 300-301.132V1.5H1.5z"/></g></svg>

<?xml version="1.0" encoding="UTF-8" standalone="no"?>
<svg
   xmlns:dc="http://purl.org/dc/elements/1.1/"
   xmlns:cc="http://creativecommons.org/ns#"
   xmlns:rdf="http://www.w3.org/1999/02/22-rdf-syntax-ns#"
   xmlns:svg="http://www.w3.org/2000/svg"
   xmlns="http://www.w3.org/2000/svg"
   xmlns:xlink="http://www.w3.org/1999/xlink"
   xmlns:sodipodi="http://sodipodi.sourceforge.net/DTD/sodipodi-0.dtd"
   xmlns:inkscape="http://www.inkscape.org/namespaces/inkscape"
   height="763"
   width="603"
   version="1.0"
   id="svg20"
   sodipodi:version="0.32"
   inkscape:version="0.46"
   sodipodi:docname="Commugny-coat_of_arms.svg"
   sodipodi:docbase="C:\Documents and Settings\Steve\Bureau\Blason Villages Suisse pour Wikipédia (par Delta-9)"
   inkscape:output_extension="org.inkscape.output.svg.inkscape">
  <metadata
     id="metadata31">
    <rdf:RDF>
      <cc:Work
         rdf:about="">
        <dc:format>image/svg+xml</dc:format>
        <dc:type
           rdf:resource="http://purl.org/dc/dcmitype/StillImage" />
        <dc:date>07-AUG-2006</dc:date>
        <dc:creator>
          <cc:Agent>
            <dc:title>Jérôme BLUM (wagner51)</dc:title>
          </cc:Agent>
        </dc:creator>
        <cc:license
           rdf:resource="http://creativecommons.org/licenses/GPL/2.0/" />
        <dc:coverage />
        <dc:description>Gabarit pour le Projet:Blasons de WIkipédia</dc:description>
        <dc:subject>
          <rdf:Bag>
            <rdf:li>blason suisse modèle gabarit projet blasons</rdf:li>
          </rdf:Bag>
        </dc:subject>
        <dc:language>fr</dc:language>
        <dc:title>Gabrit d'un blason suisse</dc:title>
      </cc:Work>
      <cc:License
         rdf:about="http://creativecommons.org/licenses/GPL/2.0/">
        <cc:permits
           rdf:resource="http://web.resource.org/cc/Reproduction" />
        <cc:permits
           rdf:resource="http://web.resource.org/cc/Distribution" />
        <cc:requires
           rdf:resource="http://web.resource.org/cc/Notice" />
        <cc:permits
           rdf:resource="http://web.resource.org/cc/DerivativeWorks" />
        <cc:requires
           rdf:resource="http://web.resource.org/cc/ShareAlike" />
        <cc:requires
           rdf:resource="http://web.resource.org/cc/SourceCode" />
      </cc:License>
    </rdf:RDF>
  </metadata>
  <defs
     id="defs29"><inkscape:perspective
   sodipodi:type="inkscape:persp3d"
   inkscape:vp_x="0 : 381.5 : 1"
   inkscape:vp_y="0 : 1000 : 0"
   inkscape:vp_z="603 : 381.5 : 1"
   inkscape:persp3d-origin="301.5 : 254.33333 : 1"
   id="perspective28" />
<linearGradient
   id="linearGradient2893">
  <stop
     style="stop-color:#ffffff;stop-opacity:0.3137255;"
     offset="0"
     id="stop2895" />
  <stop
     id="stop2897"
     offset="0.19"
     style="stop-color:#ffffff;stop-opacity:0.25098041;" />
  <stop
     style="stop-color:#6b6b6b;stop-opacity:0.1254902;"
     offset="0.60000002"
     id="stop2901" />
  <stop
     style="stop-color:#000000;stop-opacity:0.1254902;"
     offset="1"
     id="stop2899" />
</linearGradient>
<linearGradient
   id="linearGradient2955">
  <stop
     style="stop-color:white;stop-opacity:0;"
     offset="0"
     id="stop2965" />
  <stop
     style="stop-color:black;stop-opacity:0.64583331;"
     offset="1"
     id="stop2959" />
</linearGradient>
<radialGradient
   inkscape:collect="always"
   xlink:href="#linearGradient2893"
   id="radialGradient3236"
   gradientUnits="userSpaceOnUse"
   gradientTransform="matrix(1.215027,1.531577e-24,1.464684e-23,1.266667,-839.1924,-490.4894)"
   cx="858.04236"
   cy="579.93323"
   fx="858.04236"
   fy="579.93323"
   r="300" />
<inkscape:perspective
   id="perspective2542"
   inkscape:persp3d-origin="297.63751 : 280.63 : 1"
   inkscape:vp_z="595.27502 : 420.94501 : 1"
   inkscape:vp_y="0 : 1000 : 0"
   inkscape:vp_x="0 : 420.94501 : 1"
   sodipodi:type="inkscape:persp3d" />

	
	

	
	

		
		
		
	
		
	
			
			
		
			
			
			
		
			
				
			
			
		
			
			
			
		</defs>
  <sodipodi:namedview
     inkscape:window-height="904"
     inkscape:window-width="1229"
     inkscape:pageshadow="2"
     inkscape:pageopacity="0.0"
     guidetolerance="10.0"
     gridtolerance="10.0"
     objecttolerance="10.0"
     borderopacity="1.0"
     bordercolor="#666666"
     pagecolor="#ffffff"
     id="base"
     inkscape:zoom="0.74991929"
     inkscape:cx="290.46847"
     inkscape:cy="370.67245"
     inkscape:window-x="20"
     inkscape:window-y="42"
     inkscape:current-layer="layer2"
     showgrid="false"
     showguides="true"
     inkscape:guide-bbox="true">
    <sodipodi:guide
       orientation="horizontal"
       position="761.5"
       id="guide1885" />
    <sodipodi:guide
       orientation="vertical"
       position="1.5"
       id="guide1887" />
    <sodipodi:guide
       orientation="horizontal"
       position="1.5"
       id="guide1889" />
    <sodipodi:guide
       orientation="vertical"
       position="601.5"
       id="guide1891" />
    <sodipodi:guide
       orientation="vertical"
       position="301.50081"
       id="guide1893" />
  </sodipodi:namedview>
  <desc
     id="desc22">Coat of Arms of Canton of Freiburg (Fribourg)</desc>
  <g
     inkscape:groupmode="layer"
     id="layer1"
     inkscape:label="Fond écu"
     style="opacity:1"
     sodipodi:insensitive="true">
    <path
       id="path1899"
       d="M 1.5,1.49998 L 1.5,460.3679 C 1.5,626.6785 135.81456,761.5 301.49999,761.5 C 467.18543,761.5 601.5,626.6785 601.5,460.3679 L 601.5,1.49998 L 1.5,1.49998 z "
       style="fill:#e20909;fill-opacity:1" />
  </g>
  <g
     inkscape:groupmode="layer"
     id="layer2"
     inkscape:label="Meubles"
     style="opacity:1;display:inline"
     sodipodi:insensitive="true">
    <path
       d="M 238,754.718 C 258.471,759.146 279.71,761.499 301.5,761.499 C 323.29,761.499 344.529,759.145 365,754.718 L 365,1.5 L 238,1.5 L 238,754.718 z"
       id="path1963"
       style="fill:#ffffff" />
    <path
       d="M 364.999,754.718 L 364.999,1.5"
       id="path1963_9_"
       style="fill:none;stroke:#000000;stroke-width:3" />
    <path
       d="M 238,1.5 L 238,754.718"
       id="path1963_8_"
       style="fill:none;stroke:#000000;stroke-width:3" />
    <path
       id="path2515"
       d="M 272.846,106.954 C 260.315,106.954 251.847,116.298 251.847,131.25 C 251.847,146.201 254.556,160.03 258.959,173.486 C 263.362,186.942 255.063,183.392 251.507,193.67 C 247.95,203.95 251.338,221.144 257.604,228.059 L 273.861,217.593 C 273.861,217.593 281.99,209.743 281.99,186.57 C 281.99,163.395 273.523,162.274 273.523,142.464 C 273.523,122.654 290.458,136.11 290.458,122.654 C 290.458,109.197 278.265,106.954 272.846,106.954 z"
       style="fill:#fcef3c;stroke:#000000;stroke-width:3;stroke-linecap:round;stroke-linejoin:round" />
    <path
       id="path2517"
       d="M 330.152,106.954 C 342.683,106.954 351.151,116.298 351.151,131.25 C 351.151,146.201 348.442,160.03 344.039,173.486 C 339.636,186.942 347.933,183.392 351.49,193.67 C 355.046,203.95 351.658,221.144 345.393,228.059 L 329.134,217.593 C 329.134,217.593 321.006,209.743 321.006,186.57 C 321.006,163.395 329.474,162.274 329.474,142.464 C 329.474,122.654 312.539,136.11 312.539,122.654 C 312.54,109.197 324.733,106.954 330.152,106.954 z"
       style="fill:#fcef3c;stroke:#000000;stroke-width:3;stroke-linecap:round;stroke-linejoin:round" />
    <path
       id="path2519"
       d="M 316.266,181.165 C 312.709,177.169 312.54,170.89 312.54,154.525 C 312.54,138.159 314.91,130.929 314.91,121.034 C 314.91,111.139 309.153,106.953 301.499,106.953 C 293.845,106.953 288.087,111.14 288.087,121.034 C 288.087,130.93 290.458,138.159 290.458,154.525 C 290.458,170.89 290.289,177.169 286.732,181.165 C 283.176,185.162 276.638,211.611 301.499,211.611 C 326.359,211.612 319.821,185.162 316.266,181.165 z"
       style="fill:#fcef3c;stroke:#000000;stroke-width:3;stroke-linecap:round;stroke-linejoin:round" />
    <ellipse
       id="ellipse2523"
       ry="28.253"
       rx="183.23199"
       cy="547.66602"
       cx="301.53699"
       sodipodi:cx="301.53699"
       sodipodi:cy="547.66602"
       sodipodi:rx="183.23199"
       sodipodi:ry="28.253"
       style="fill:#fcef3c;stroke:#000000;stroke-width:3;stroke-linecap:round;stroke-linejoin:round"
       transform="translate(-3.8e-2,-4.5e-2)" />
    <path
       id="path2525"
       d="M 315.995,513.087 L 287.002,513.087 C 287.002,524.597 275.186,547.83 275.186,575.455 C 275.186,603.081 281.936,622.964 301.499,622.964 C 321.062,622.964 327.812,603.081 327.812,575.455 C 327.812,547.83 315.995,524.597 315.995,513.087 z"
       style="fill:#fcef3c;stroke:#000000;stroke-width:3;stroke-linecap:round;stroke-linejoin:round" />
    <path
       id="path2527"
       d="M 301.499,519.366 C 402.695,519.366 484.731,532.015 484.731,547.621 C 484.731,529.831 480.545,512.562 440.781,460.764 C 401.014,408.964 404.677,334.143 398.398,272.926 C 392.12,211.708 340.322,204.906 301.499,204.906 C 262.675,204.906 210.877,211.708 204.599,272.926 C 198.321,334.143 201.982,408.964 162.216,460.764 C 122.452,512.563 118.266,529.831 118.266,547.621 C 118.267,532.015 200.302,519.366 301.499,519.366 z"
       style="fill:#fcef3c;stroke:#000000;stroke-width:3;stroke-linecap:round;stroke-linejoin:round" />
    <path
       id="path2531"
       d="M 449.915,472.9 C 441.452,464.438 367.528,455.008 301.499,455.008 C 235.47,455.008 161.546,464.438 153.083,472.9"
       style="fill:none;stroke:#000000;stroke-width:3;stroke-linejoin:round" />
    <path
       id="path2533"
       d="M 399.19,281.274 C 391.606,266.601 347.647,261.938 301.5,261.938 C 255.353,261.938 211.393,266.602 203.811,281.274"
       style="fill:none;stroke:#000000;stroke-width:3;stroke-linejoin:round" />
    <path
       id="path2535"
       d="M 396.257,260.139 C 385.653,249.535 348.171,243.102 301.499,243.102 C 254.827,243.102 217.345,249.535 206.741,260.139"
       style="fill:none;stroke:#000000;stroke-width:3;stroke-linejoin:round" />
  </g>
  <g
     inkscape:groupmode="layer"
     id="layer3"
     inkscape:label="Reflet final"
     style="display:inline"
     sodipodi:insensitive="true">
    <path
       style="fill:url(#radialGradient3236);fill-opacity:1"
       d="M 1.5,1.5 L 1.5,460.3679 C 1.5,626.67854 135.81454,761.5 301.49993,761.5 C 467.1854,761.5 601.5,626.67854 601.5,460.3679 L 601.5,1.5 L 1.5,1.5 z "
       id="path2346" />
  </g>
  <g
     inkscape:groupmode="layer"
     id="layer4"
     inkscape:label="Contour final"
     style="display:inline"
     sodipodi:insensitive="true">
    <path
       style="fill:none;fill-opacity:1;stroke:#000000;stroke-width:3;stroke-miterlimit:4;stroke-dasharray:none;stroke-opacity:1"
       d="M 1.5,1.5 L 1.5,460.36794 C 1.5,626.67854 135.81454,761.5 301.49993,761.5 C 467.1854,761.5 601.5,626.67854 601.5,460.36794 L 601.5,1.5 L 1.5,1.5 z "
       id="path3239" />
  </g>
</svg>
